assets/Person with white cane/Medium-Dark/Flat/person_with_white_cane_flat_medium-dark.svg

<svg width="32" height="32" viewBox="0 0 32 32" fill="none" xmlns="http://www.w3.org/2000/svg">
<path d="M19.25 6.67712L19.57 8.64712L17.55 8.99712L17.24 6.98712L19.25 6.67712Z" fill="#8B5C56"/>
<path d="M19.345 19.1539L19.9 21.1672C20.1389 21.6831 20.7063 22.2264 21.3844 22.8756C21.416 22.9059 21.4479 22.9364 21.48 22.9672L25.6 27.0272L26.97 26.1572L22.95 20.7172C22.89 20.6372 22.84 20.5472 22.82 20.4472L21.91 16.6612L19.345 19.1539Z" fill="#636363"/>
<path d="M21.8 16L19.5279 15.4772L17.04 16L16.81 20.3771C16.8 21.0571 16.91 21.7771 17.13 22.7471L18.25 27.7571L18.9578 28.5171H19.87L19.6 21.4271L21.69 17.8871C21.93 17.4871 22 17.0171 21.89 16.5571L21.8 16Z" fill="#9B9B9B"/>
<path d="M27.6799 26.7071L26.7099 25.8071L25.1099 26.5271L24.4599 29.5771C24.4099 29.9171 24.8299 30.1171 25.0699 29.8671L27.6899 27.0571C27.7799 26.9571 27.7799 26.7971 27.6799 26.7071Z" fill="#533566"/>
<path d="M19.87 28.5172L18.3489 27.8036L18.26 27.7672L15.59 29.3672C15.3 29.5672 15.44 30.0072 15.79 30.0072H19.63C19.76 30.0072 19.87 29.8972 19.87 29.7572V28.4272L19.8665 28.4257L19.87 28.5172Z" fill="#533566"/>
<path d="M17.7844 9.56642C18.2929 9.61853 18.6628 10.073 18.6107 10.5815L18.6105 10.5834L18.6103 10.5857L18.6097 10.5912L18.608 10.6057C18.6067 10.6169 18.6049 10.6312 18.6025 10.6485C18.5978 10.6832 18.5909 10.7298 18.581 10.7875C18.5611 10.9028 18.5293 11.0626 18.4795 11.2591C18.38 11.652 18.208 12.1934 17.9148 12.8212C17.3555 14.0189 16.3582 15.5226 14.5989 16.8991L14.42 17.2471L14.3904 17.2991C14.3653 17.3434 14.3373 17.3928 14.307 17.4444V17.6406L14.0712 17.7969C14.0117 17.87 13.9504 17.9309 13.89 17.9671C13.66 18.1071 13.15 17.9671 12.81 17.7571C12.81 17.7571 12.39 17.4971 12.2 17.1271C12.05 16.8471 12.35 16.6571 12.35 16.6571C12.35 16.6571 12.35 16.5271 12.32 16.1871C12.3001 15.9195 12.5284 15.7771 12.7637 15.7016L13.0391 15.5273L13.226 15.6183C14.8782 14.3922 15.7641 13.0522 16.2377 12.038C16.4758 11.5282 16.6107 11.0985 16.6852 10.8044C16.7225 10.6575 16.7445 10.5449 16.7567 10.4738C16.7629 10.4382 16.7665 10.4131 16.7684 10.3993L16.7699 10.3873C16.8247 9.88165 17.2777 9.51449 17.7844 9.56642Z" fill="#966661"/>
<path d="M17.6899 13.4571C18.2999 12.2971 18.5999 11.2571 18.7399 10.4871C18.8599 9.85712 18.3899 9.26712 17.7399 9.23712H17.6999C17.2099 9.24712 16.7999 9.60712 16.7199 10.0871C16.6699 10.3771 16.5899 10.7271 16.4499 11.1271C16.2999 11.5971 16.0999 12.0571 15.8699 12.5071C15.8299 12.5871 15.8599 12.6771 15.9399 12.7171L17.4799 13.5271C17.5599 13.5671 17.6499 13.5371 17.6899 13.4571Z" fill="#F95725"/>
<path d="M18.8399 8.34717C17.4299 8.34717 16.3399 9.56717 16.4899 10.9672L17.0399 16H21.7999L21.1999 10.4572C21.0599 9.26717 20.0499 8.34717 18.8399 8.34717Z" fill="#FF6723"/>
<path d="M13.3896 18.1362L12.6173 17.5929L8.57835 23.078L8.64453 23.832L9.33937 23.6367L13.3896 18.1362Z" fill="#D3D3D3"/>
<path d="M4.83872 28.1574L6.26953 26.2187L6.97266 26.0664L7.07812 26.4062L7.03481 26.7664L5.59806 28.7176C5.62526 28.7991 5.64 28.8864 5.64 28.9772C5.64 29.43 5.27287 29.7972 4.82 29.7972C4.36713 29.7972 4 29.43 4 28.9772C4 28.5243 4.36713 28.1572 4.82 28.1572C4.82626 28.1572 4.8325 28.1572 4.83872 28.1574Z" fill="#D3D3D3"/>
<path d="M7.02002 26.7771L9.34002 23.6371L8.58002 23.0771L6.27002 26.2271L7.02002 26.7771Z" fill="#F92F60"/>
<path d="M14 15.2873C13.6913 15.2873 13.4124 15.4144 13.2127 15.6192C13.1336 15.6246 12.9406 15.6434 12.7542 15.7047C12.9955 15.265 13.4629 14.9669 14 14.9669C14.7843 14.9669 15.4202 15.6028 15.4202 16.3871C15.4202 17.1501 14.8185 17.7726 14.0637 17.8059C14.1517 17.6995 14.2359 17.5654 14.3076 17.4433C14.7652 17.3103 15.0998 16.8878 15.0998 16.3871C15.0998 15.7797 14.6074 15.2873 14 15.2873Z" fill="#635994"/>
<path d="M13.1901 17.1771C13.04 17.2482 12.8649 17.2132 12.7536 17.1017L12.1601 17.9072C12.0901 18.0072 12.1101 18.1372 12.2101 18.2072L12.9301 18.7372C13.0301 18.8072 13.1601 18.7872 13.2301 18.6872L14.6301 16.7872C14.6901 16.6872 14.6701 16.5572 14.5801 16.4872L13.8601 15.9572C13.7601 15.8872 13.6301 15.9072 13.5601 16.0072L13.2686 16.4027L13.3701 16.6671C13.4601 16.8571 13.3801 17.0871 13.1901 17.1771Z" fill="#635994"/>
<path d="M24.7672 16.09C24.8939 16.3603 24.9686 16.652 24.9872 16.95C24.9472 17.22 24.5072 17.53 24.1372 17.66C23.8571 17.7524 23.5595 17.7798 23.2672 17.74C22.9572 17.68 22.9972 17.32 22.9972 17.32C22.9972 17.32 22.8972 17.24 22.6172 17.04C22.2272 16.771 22.6172 16.159 22.7282 16C22.7152 15.971 22.6922 15.95 22.6812 15.92C22.1576 14.3548 21.2723 12.935 20.0972 11.776C19.7564 11.4402 19.3885 11.1332 18.9972 10.858C18.8592 10.758 18.7512 10.694 18.6802 10.651L18.5902 10.599L18.1992 9.35199C18.6172 8.55199 19.3762 8.86599 20.0532 9.33699C20.5295 9.67112 20.9777 10.0437 21.3932 10.451C22.9239 12.0558 24.0767 13.9825 24.7672 16.09Z" fill="#966661"/>
<path d="M21.89 10.7771C21.01 9.80715 20.13 9.16715 19.46 8.77715C18.91 8.44715 18.19 8.69715 17.94 9.28715L17.93 9.31715C17.78 9.77715 17.97 10.2871 18.39 10.5271C18.64 10.6771 18.95 10.8771 19.28 11.1371C19.67 11.4471 20.03 11.7871 20.37 12.1571C20.43 12.2171 20.53 12.2271 20.59 12.1671L21.88 11.0071C21.95 10.9471 21.95 10.8471 21.89 10.7771Z" fill="#FF8101"/>
<path d="M17.0699 8.05717C17.7899 8.05717 18.9199 7.69717 19.2499 6.84717L19.5699 5.70717L19.9199 4.50717C19.9199 3.62717 19.1999 2.90717 18.3199 2.90717H17.2799C16.3999 2.90717 15.6799 3.62717 15.6799 4.50717V5.14098C15.6767 5.14532 15.6734 5.15069 15.67 5.15714C15.5354 5.41235 15.4332 5.55344 15.3622 5.65136C15.2802 5.76445 15.24 5.81994 15.24 5.92714C15.24 6.12714 15.46 6.29714 15.67 6.29714C15.6746 6.29714 15.6791 6.29706 15.6834 6.29691C15.7055 7.3176 15.8685 8.05717 17.0699 8.05717Z" fill="#966661"/>
<path d="M16.08 5.41714C16.02 5.41714 15.97 5.35714 15.97 5.28714V5.27714C15.97 4.98714 16.22 4.81714 16.46 4.81714C16.7 4.81714 16.95 4.98714 16.95 5.27714V5.28714C16.95 5.35714 16.9 5.41714 16.84 5.41714H16.08Z" fill="white"/>
<path d="M15.98 5.41716C15.97 5.37716 15.96 5.32716 15.96 5.27716C15.96 5.06716 16.1 4.89716 16.26 4.89716C16.43 4.89716 16.56 5.06716 16.56 5.27716C16.56 5.32716 16.55 5.36716 16.54 5.41716H15.98Z" fill="#7D4533"/>
<path d="M16.08 5.41713C16.06 5.37713 16.04 5.33713 16.04 5.27713C16.04 5.15713 16.12 5.05713 16.21 5.05713C16.31 5.05713 16.38 5.15713 16.38 5.27713C16.38 5.32713 16.37 5.37713 16.34 5.41713H16.08Z" fill="black"/>
<path d="M16.11 5.19713C16.1432 5.19713 16.17 5.16579 16.17 5.12713C16.17 5.08847 16.1432 5.05713 16.11 5.05713C16.0769 5.05713 16.05 5.08847 16.05 5.12713C16.05 5.16579 16.0769 5.19713 16.11 5.19713Z" fill="white"/>
<path d="M16.6727 6.3455C16.7288 6.36347 16.7598 6.42356 16.7418 6.47971C16.6428 6.78902 16.3105 6.94578 16.0076 6.84884C15.9514 6.83087 15.9205 6.77079 15.9385 6.71464C15.9564 6.65849 16.0165 6.62753 16.0727 6.6455C16.2697 6.70856 16.4774 6.60532 16.5385 6.41464C16.5564 6.35849 16.6165 6.32753 16.6727 6.3455Z" fill="#990838"/>
<path d="M18.4799 4.73712C18.4799 4.73712 18.4799 3.91712 17.1299 3.91712C15.9899 3.91712 15.6699 3.52712 15.6699 2.87712C15.6699 2.19712 16.2199 2.02712 16.5199 2.02712C16.9087 2.02712 17.1183 2.08309 17.2931 2.12976C17.5229 2.19113 17.6925 2.23641 18.1299 2.11712C19.1899 1.81712 20.7499 2.00712 20.7499 3.71712C20.7499 6.06712 19.8999 6.07712 19.8999 6.07712C20.5699 6.07712 20.4899 6.93712 19.9899 6.93712C19.9478 6.93712 19.8988 6.94086 19.8457 6.94492C19.5203 6.96977 19.0399 7.00645 19.0399 6.26712C19.0399 6.07714 19.0327 5.91058 19.0198 5.76458C19.0955 5.65829 19.14 5.52807 19.14 5.38712C19.14 5.05414 18.8919 4.78104 18.5698 4.74193C18.516 4.72811 18.4799 4.73712 18.4799 4.73712Z" fill="#2D242D"/>
<path d="M16.8797 4.61043C16.8541 4.6108 16.8292 4.60271 16.8087 4.58743C16.6311 4.46752 16.4164 4.41536 16.2037 4.44043C16.1737 4.44356 16.1436 4.43487 16.1199 4.41619C16.0962 4.39752 16.0807 4.37035 16.0767 4.34043C16.0749 4.32552 16.076 4.3104 16.0801 4.29593C16.0841 4.28147 16.091 4.26795 16.1003 4.25614C16.1096 4.24434 16.1211 4.23449 16.1342 4.22716C16.1473 4.21983 16.1617 4.21517 16.1767 4.21343C16.4503 4.18093 16.7261 4.2523 16.9497 4.41343C16.9615 4.42253 16.9713 4.43387 16.9787 4.4468C16.9861 4.45973 16.9909 4.474 16.9927 4.48877C16.9946 4.50355 16.9935 4.51855 16.9896 4.5329C16.9856 4.54726 16.9788 4.56069 16.9697 4.57243C16.9584 4.58504 16.9445 4.59499 16.9289 4.60156C16.9134 4.60813 16.8966 4.61116 16.8797 4.61043Z" fill="#372128"/>
</svg>

<svg xmlns="http://www.w3.org/2000/svg" width="32" height="32" fill="none"><path fill="#8B5C56" d="m19.25 6.677.32 1.97-2.02.35-.31-2.01 2.01-.31Z"/><path fill="#636363" d="m19.345 19.154.555 2.013c.239.516.806 1.06 1.484 1.709l.096.091 4.12 4.06 1.37-.87-4.02-5.44a.678.678 0 0 1-.13-.27l-.91-3.786-2.565 2.493Z"/><path fill="#9B9B9B" d="m21.8 16-2.272-.523L17.04 16l-.23 4.377c-.01.68.1 1.4.32 2.37l1.12 5.01.708.76h.912l-.27-7.09 2.09-3.54c.24-.4.31-.87.2-1.33L21.8 16Z"/><path fill="#533566" d="m27.68 26.707-.97-.9-1.6.72-.65 3.05c-.05.34.37.54.61.29l2.62-2.81c.09-.1.09-.26-.01-.35ZM19.87 28.517l-1.521-.713-.089-.037-2.67 1.6c-.29.2-.15.64.2.64h3.84c.13 0 .24-.11.24-.25v-1.33l-.004-.001.004.091Z"/><path fill="#966661" d="M17.784 9.566a.926.926 0 0 1 .827 1.015v.005l-.001.005-.002.015a6.276 6.276 0 0 1-.128.653c-.1.393-.272.934-.565 1.562-.56 1.198-1.557 2.702-3.316 4.078l-.179.348-.03.052-.083.145v.197l-.236.156a.75.75 0 0 1-.181.17c-.23.14-.74 0-1.08-.21 0 0-.42-.26-.61-.63-.15-.28.15-.47.15-.47s0-.13-.03-.47c-.02-.268.208-.41.444-.485l.275-.175.187.091c1.652-1.226 2.538-2.566 3.012-3.58.238-.51.373-.94.447-1.234a4.344 4.344 0 0 0 .083-.405l.002-.012a.926.926 0 0 1 1.014-.82Z"/><path fill="#F95725" d="M17.69 13.457c.61-1.16.91-2.2 1.05-2.97.12-.63-.35-1.22-1-1.25h-.04c-.49.01-.9.37-.98.85-.05.29-.13.64-.27 1.04-.15.47-.35.93-.58 1.38-.04.08-.01.17.07.21l1.54.81c.08.04.17.01.21-.07Z"/><path fill="#FF6723" d="M18.84 8.347c-1.41 0-2.5 1.22-2.35 2.62L17.04 16h4.76l-.6-5.543a2.388 2.388 0 0 0-2.36-2.11Z"/><path fill="#D3D3D3" d="m13.39 18.136-.773-.543-4.039 5.485.067.754.694-.195 4.05-5.5ZM4.839 28.157l1.43-1.938.704-.153.105.34-.043.36-1.437 1.952a.819.819 0 0 1-.778 1.08.82.82 0 1 1 .019-1.64Z"/><path fill="#F92F60" d="m7.02 26.777 2.32-3.14-.76-.56-2.31 3.15.75.55Z"/><path fill="#635994" d="M14 15.287c-.309 0-.588.127-.787.332-.08.006-.272.024-.459.086a1.42 1.42 0 1 1 1.31 2.1 2.86 2.86 0 0 0 .244-.362A1.1 1.1 0 0 0 14 15.287Z"/><path fill="#635994" d="M13.19 17.177a.386.386 0 0 1-.436-.075l-.594.805c-.07.1-.05.23.05.3l.72.53c.1.07.23.05.3-.05l1.4-1.9a.23.23 0 0 0-.05-.3l-.72-.53a.211.211 0 0 0-.3.05l-.291.396.101.264c.09.19.01.42-.18.51Z"/><path fill="#966661" d="M24.767 16.09c.127.27.202.562.22.86-.04.27-.48.58-.85.71-.28.092-.578.12-.87.08-.31-.06-.27-.42-.27-.42s-.1-.08-.38-.28c-.39-.269 0-.881.111-1.04-.013-.029-.036-.05-.047-.08a10.499 10.499 0 0 0-2.584-4.144 8.689 8.689 0 0 0-1.1-.918c-.138-.1-.246-.164-.317-.207l-.09-.052-.39-1.247c.417-.8 1.176-.486 1.853-.015.476.334.925.707 1.34 1.114a14.885 14.885 0 0 1 3.374 5.639Z"/><path fill="#FF8101" d="M21.89 10.777c-.88-.97-1.76-1.61-2.43-2-.55-.33-1.27-.08-1.52.51l-.01.03c-.15.46.04.97.46 1.21.25.15.56.35.89.61.39.31.75.65 1.09 1.02.06.06.16.07.22.01l1.29-1.16c.07-.06.07-.16.01-.23Z"/><path fill="#966661" d="M17.07 8.057c.72 0 1.85-.36 2.18-1.21l.32-1.14.35-1.2c0-.88-.72-1.6-1.6-1.6h-1.04c-.88 0-1.6.72-1.6 1.6v.634a3.7 3.7 0 0 1-.318.51c-.082.113-.122.169-.122.276 0 .2.22.37.43.37h.013c.023 1.02.185 1.76 1.387 1.76Z"/><path fill="#fff" d="M16.08 5.417c-.06 0-.11-.06-.11-.13v-.01c0-.29.25-.46.49-.46s.49.17.49.46v.01c0 .07-.05.13-.11.13h-.76Z"/><path fill="#7D4533" d="M15.98 5.417a.59.59 0 0 1-.02-.14c0-.21.14-.38.3-.38.17 0 .3.17.3.38 0 .05-.01.09-.02.14h-.56Z"/><path fill="#000" d="M16.08 5.417a.29.29 0 0 1-.04-.14c0-.12.08-.22.17-.22.1 0 .17.1.17.22 0 .05-.01.1-.04.14h-.26Z"/><path fill="#fff" d="M16.11 5.197c.033 0 .06-.031.06-.07 0-.039-.027-.07-.06-.07s-.06.031-.06.07c0 .039.027.07.06.07Z"/><path fill="#990838" d="M16.673 6.346a.107.107 0 0 1 .069.134.58.58 0 0 1-.734.369.107.107 0 1 1 .065-.204.367.367 0 0 0 .465-.23.107.107 0 0 1 .135-.07Z"/><path fill="#2D242D" d="M18.48 4.737s0-.82-1.35-.82c-1.14 0-1.46-.39-1.46-1.04 0-.68.55-.85.85-.85.389 0 .598.056.773.103.23.061.4.106.837-.013 1.06-.3 2.62-.11 2.62 1.6 0 2.35-.85 2.36-.85 2.36.67 0 .59.86.09.86-.042 0-.091.004-.144.008-.326.025-.806.061-.806-.678 0-.19-.007-.356-.02-.502a.649.649 0 0 0-.45-1.023c-.054-.014-.09-.005-.09-.005Z"/><path fill="#372128" d="M16.88 4.61a.116.116 0 0 1-.071-.023.894.894 0 0 0-.605-.147.116.116 0 0 1-.127-.1.113.113 0 0 1 .057-.113.114.114 0 0 1 .043-.014 1.1 1.1 0 0 1 .773.2.113.113 0 0 1 .02.16.114.114 0 0 1-.09.037Z"/></svg>
